24x24/apps/gottet.svg

<svg xmlns="http://www.w3.org/2000/svg" width="24" height="24" version="1"><rect style="opacity:.2" width="5" height="5" x="-22.5" y="-7" rx=".5" ry=".5" transform="matrix(0 -1 -1 0 0 0)"/><rect style="opacity:.2" width="5" height="5" x="-22.5" y="-12" rx=".5" ry=".5" transform="matrix(0 -1 -1 0 0 0)"/><rect style="opacity:.2" width="5" height="5" x="-22.5" y="-17" rx=".5" ry=".5" transform="matrix(0 -1 -1 0 0 0)"/><rect style="fill:#5ba8da" width="5" height="5" x="-22" y="-7" rx=".5" ry=".5" transform="matrix(0 -1 -1 0 0 0)"/><rect style="fill:#2d89c3" width="5" height="5" x="-22" y="-12" rx=".5" ry=".5" transform="matrix(0 -1 -1 0 0 0)"/><rect style="fill:#5ba8da" width="5" height="5" x="-22" y="-17" rx=".5" ry=".5" transform="matrix(0 -1 -1 0 0 0)"/><rect style="opacity:.2" width="5" height="5" x="-17.5" y="-7" rx=".5" ry=".5" transform="matrix(0 -1 -1 0 0 0)"/><rect style="fill:#fc965f" width="5" height="5" x="-17" y="-7" rx=".5" ry=".5" transform="matrix(0 -1 -1 0 0 0)"/><rect style="opacity:.2" width="5" height="5" x="-17.5" y="-12" rx=".5" ry=".5" transform="matrix(0 -1 -1 0 0 0)"/><rect style="fill:#5ba8da" width="5" height="5" x="-17" y="-12" rx=".5" ry=".5" transform="matrix(0 -1 -1 0 0 0)"/><rect style="opacity:.2" width="5" height="5" x="-17.5" y="-17" rx=".5" ry=".5" transform="matrix(0 -1 -1 0 0 0)"/><rect style="fill:#d83535" width="5" height="5" x="-17" y="-17" rx=".5" ry=".5" transform="matrix(0 -1 -1 0 0 0)"/><rect style="opacity:.2" width="5" height="5" x="-17.5" y="-22" rx=".5" ry=".5" transform="matrix(0 -1 -1 0 0 0)"/><rect style="fill:#dd5252" width="5" height="5" x="-17" y="-22" rx=".5" ry=".5" transform="matrix(0 -1 -1 0 0 0)"/><rect style="opacity:.2" width="5" height="5" x="-12.5" y="-7" rx=".5" ry=".5" transform="matrix(0 -1 -1 0 0 0)"/><rect style="fill:#fc7c35" width="5" height="5" x="-12" y="-7" rx=".5" ry=".5" transform="matrix(0 -1 -1 0 0 0)"/><rect style="opacity:.2" width="5" height="5" x="-12.5" y="-12" rx=".5" ry=".5" transform="matrix(0 -1 -1 0 0 0)"/><rect style="fill:#d83535" width="5" height="5" x="-12" y="-12" rx=".5" ry=".5" transform="matrix(0 -1 -1 0 0 0)"/><rect style="opacity:.2" width="5" height="5" x="-12.5" y="-17" rx=".5" ry=".5" transform="matrix(0 -1 -1 0 0 0)"/><rect style="fill:#dd5252" width="5" height="5" x="-12" y="-17" rx=".5" ry=".5" transform="matrix(0 -1 -1 0 0 0)"/><rect style="opacity:.2" width="5" height="5" x="-7.5" y="-7" rx=".5" ry=".5" transform="matrix(0 -1 -1 0 0 0)"/><rect style="fill:#fc965f" width="5" height="5" x="-7" y="-7" rx=".5" ry=".5" transform="matrix(0 -1 -1 0 0 0)"/><rect style="opacity:.2" width="5" height="5" x="-7.5" y="-12" rx=".5" ry=".5" transform="matrix(0 -1 -1 0 0 0)"/><rect style="fill:#fc7c35" width="5" height="5" x="-7" y="-12" rx=".5" ry=".5" transform="matrix(0 -1 -1 0 0 0)"/><path style="opacity:.2;fill:#f4f4f7" d="M17.5 12c-.277 0-.5.223-.5.5v.5c0-.277.223-.5.5-.5h4c.277 0 .5.223.5.5v-.5c0-.277-.223-.5-.5-.5zM12.5 7c-.277 0-.5.223-.5.5V8c0-.277.223-.5.5-.5h4c.277 0 .5.223.5.5v-.5c0-.277-.223-.5-.5-.5zM2.5 2c-.277 0-.5.223-.5.5V3c0-.277.223-.5.5-.5h4c.277 0 .5.223.5.5v-.5c0-.277-.223-.5-.5-.5zM7.5 2c-.277 0-.5.223-.5.5V3c0-.277.223-.5.5-.5h4c.277 0 .5.223.5.5v-.5c0-.277-.223-.5-.5-.5z"/></svg>

<svg xmlns="http://www.w3.org/2000/svg" width="24" height="24" version="1">
 <rect style="opacity:0.2" width="5" height="5" x="-22.5" y="-7" rx=".5" ry=".5" transform="matrix(0,-1,-1,0,0,0)"/>
 <rect style="opacity:0.2" width="5" height="5" x="-22.5" y="-12" rx=".5" ry=".5" transform="matrix(0,-1,-1,0,0,0)"/>
 <rect style="opacity:0.2" width="5" height="5" x="-22.5" y="-17" rx=".5" ry=".5" transform="matrix(0,-1,-1,0,0,0)"/>
 <rect style="fill:#5ba8da" width="5" height="5" x="-22" y="-7" rx=".5" ry=".5" transform="matrix(0,-1,-1,0,0,0)"/>
 <rect style="fill:#2d89c3" width="5" height="5" x="-22" y="-12" rx=".5" ry=".5" transform="matrix(0,-1,-1,0,0,0)"/>
 <rect style="fill:#5ba8da" width="5" height="5" x="-22" y="-17" rx=".5" ry=".5" transform="matrix(0,-1,-1,0,0,0)"/>
 <rect style="opacity:0.2" width="5" height="5" x="-17.5" y="-7" rx=".5" ry=".5" transform="matrix(0,-1,-1,0,0,0)"/>
 <rect style="fill:#fc965f" width="5" height="5" x="-17" y="-7" rx=".5" ry=".5" transform="matrix(0,-1,-1,0,0,0)"/>
 <rect style="opacity:0.2" width="5" height="5" x="-17.5" y="-12" rx=".5" ry=".5" transform="matrix(0,-1,-1,0,0,0)"/>
 <rect style="fill:#5ba8da" width="5" height="5" x="-17" y="-12" rx=".5" ry=".5" transform="matrix(0,-1,-1,0,0,0)"/>
 <rect style="opacity:0.2" width="5" height="5" x="-17.5" y="-17" rx=".5" ry=".5" transform="matrix(0,-1,-1,0,0,0)"/>
 <rect style="fill:#d83535" width="5" height="5" x="-17" y="-17" rx=".5" ry=".5" transform="matrix(0,-1,-1,0,0,0)"/>
 <rect style="opacity:0.2" width="5" height="5" x="-17.5" y="-22" rx=".5" ry=".5" transform="matrix(0,-1,-1,0,0,0)"/>
 <rect style="fill:#dd5252" width="5" height="5" x="-17" y="-22" rx=".5" ry=".5" transform="matrix(0,-1,-1,0,0,0)"/>
 <rect style="opacity:0.2" width="5" height="5" x="-12.5" y="-7" rx=".5" ry=".5" transform="matrix(0,-1,-1,0,0,0)"/>
 <rect style="fill:#fc7c35" width="5" height="5" x="-12" y="-7" rx=".5" ry=".5" transform="matrix(0,-1,-1,0,0,0)"/>
 <rect style="opacity:0.2" width="5" height="5" x="-12.5" y="-12" rx=".5" ry=".5" transform="matrix(0,-1,-1,0,0,0)"/>
 <rect style="fill:#d83535" width="5" height="5" x="-12" y="-12" rx=".5" ry=".5" transform="matrix(0,-1,-1,0,0,0)"/>
 <rect style="opacity:0.2" width="5" height="5" x="-12.5" y="-17" rx=".5" ry=".5" transform="matrix(0,-1,-1,0,0,0)"/>
 <rect style="fill:#dd5252" width="5" height="5" x="-12" y="-17" rx=".5" ry=".5" transform="matrix(0,-1,-1,0,0,0)"/>
 <rect style="opacity:0.2" width="5" height="5" x="-7.5" y="-7" rx=".5" ry=".5" transform="matrix(0,-1,-1,0,0,0)"/>
 <rect style="fill:#fc965f" width="5" height="5" x="-7" y="-7" rx=".5" ry=".5" transform="matrix(0,-1,-1,0,0,0)"/>
 <rect style="opacity:0.2" width="5" height="5" x="-7.5" y="-12" rx=".5" ry=".5" transform="matrix(0,-1,-1,0,0,0)"/>
 <rect style="fill:#fc7c35" width="5" height="5" x="-7" y="-12" rx=".5" ry=".5" transform="matrix(0,-1,-1,0,0,0)"/>
 <path style="opacity:0.2;fill:#f4f4f7" d="M 17.5,12 C 17.223,12 17,12.223 17,12.5 V 13 c 0,-0.277 0.223,-0.5 0.5,-0.5 h 4 c 0.277,0 0.5,0.223 0.5,0.5 V 12.5 C 22,12.223 21.777,12 21.5,12 Z"/>
 <path style="opacity:0.2;fill:#f4f4f7" d="M 12.5,7 C 12.223,7 12,7.223 12,7.5 V 8 c 0,-0.277 0.223,-0.5 0.5,-0.5 h 4 C 16.777,7.5 17,7.723 17,8 V 7.5 C 17,7.223 16.777,7 16.5,7 Z"/>
 <path style="opacity:0.2;fill:#f4f4f7" d="M 2.5,2 C 2.223,2 2,2.223 2,2.5 V 3 C 2,2.723 2.223,2.5 2.5,2.5 h 4 C 6.777,2.5 7,2.723 7,3 V 2.5 C 7,2.223 6.777,2 6.5,2 Z"/>
 <path style="opacity:0.2;fill:#f4f4f7" d="M 7.5,2 C 7.223,2 7,2.223 7,2.5 V 3 C 7,2.723 7.223,2.5 7.5,2.5 h 4 C 11.777,2.5 12,2.723 12,3 V 2.5 C 12,2.223 11.777,2 11.5,2 Z"/>
</svg>
